public/images/icon-instagram.svg

<svg width="40" height="40" viewBox="0 0 40 40" fill="none" xmlns="http://www.w3.org/2000/svg">
<g id="icon/instagram">
<path id="vector" fill-rule="evenodd" clip-rule="evenodd" d="M19.5122 4.87805C15.5376 4.87805 15.04 4.89464 13.479 4.96586C11.921 5.03708 10.8566 5.28488 9.92586 5.64683C8.95025 6.01366 8.06537 6.58927 7.33366 7.33464C6.58949 8.0655 6.01352 8.94975 5.64586 9.92586C5.28586 10.8566 5.03708 11.922 4.96586 13.48C4.89561 15.04 4.87805 15.5366 4.87805 19.5122C4.87805 23.4878 4.89464 23.9844 4.96586 25.5454C5.03708 27.1034 5.28488 28.1678 5.64683 29.0985C6.01366 30.0742 6.58927 30.959 7.33464 31.6907C8.06552 32.4349 8.94977 33.0108 9.92586 33.3785C10.8566 33.7395 11.921 33.9873 13.479 34.0585C15.04 34.1298 15.5376 34.1463 19.5122 34.1463C23.4868 34.1463 23.9844 34.1298 25.5454 34.0585C27.1034 33.9873 28.1678 33.7395 29.0985 33.3776C30.0742 33.0107 30.959 32.4351 31.6907 31.6898C32.4349 30.9589 33.0109 30.0746 33.3785 29.0985C33.7395 28.1678 33.9873 27.1034 34.0585 25.5454C34.1298 23.9844 34.1463 23.4868 34.1463 19.5122C34.1463 15.5376 34.1298 15.04 34.0585 13.479C33.9873 11.921 33.7395 10.8566 33.3776 9.92586C33.0102 8.94933 32.4342 8.06471 31.6898 7.33366C30.9589 6.58949 30.0746 6.01352 29.0985 5.64586C28.1678 5.28586 27.1024 5.03708 25.5444 4.96586C23.9844 4.89561 23.4878 4.87805 19.5122 4.87805ZM19.5122 7.51513C23.4195 7.51513 23.8829 7.52976 25.4263 7.6C26.8527 7.66537 27.6273 7.90244 28.1434 8.10439C28.8263 8.36878 29.3142 8.68683 29.8263 9.19805C30.3385 9.71025 30.6556 10.1981 30.92 10.881C31.121 11.3971 31.359 12.1717 31.4244 13.5981C31.4946 15.1415 31.5093 15.6049 31.5093 19.5122C31.5093 23.4195 31.4946 23.8829 31.4244 25.4263C31.359 26.8527 31.122 27.6273 30.92 28.1434C30.6858 28.7791 30.3121 29.3541 29.8263 29.8263C29.3542 30.3122 28.7791 30.6859 28.1434 30.92C27.6273 31.121 26.8527 31.359 25.4263 31.4244C23.8829 31.4946 23.4205 31.5093 19.5122 31.5093C15.6039 31.5093 15.1415 31.4946 13.5981 31.4244C12.1717 31.359 11.3971 31.122 10.881 30.92C10.2453 30.6858 9.67025 30.3121 9.19805 29.8263C8.71237 29.3541 8.33867 28.779 8.10439 28.1434C7.90342 27.6273 7.66537 26.8527 7.6 25.4263C7.52976 23.8829 7.51513 23.4195 7.51513 19.5122C7.51513 15.6049 7.52976 15.1415 7.6 13.5981C7.66537 12.1717 7.90244 11.3971 8.10439 10.881C8.36878 10.1981 8.68683 9.71025 9.19805 9.19805C9.67019 8.71224 10.2453 8.33852 10.881 8.10439C11.3971 7.90342 12.1717 7.66537 13.5981 7.6C15.1415 7.52976 15.6049 7.51513 19.5122 7.51513V7.51513Z" fill="black"/>
<path id="vector_2" fill-rule="evenodd" clip-rule="evenodd" d="M19.5122 24.3951C18.8709 24.3951 18.236 24.2688 17.6436 24.0234C17.0511 23.778 16.5129 23.4183 16.0594 22.9649C15.606 22.5115 15.2463 21.9732 15.0009 21.3808C14.7556 20.7883 14.6293 20.1534 14.6293 19.5121C14.6293 18.8709 14.7556 18.236 15.0009 17.6435C15.2463 17.0511 15.606 16.5128 16.0594 16.0594C16.5129 15.606 17.0511 15.2463 17.6436 15.0009C18.236 14.7555 18.8709 14.6292 19.5122 14.6292C20.8072 14.6292 22.0492 15.1437 22.9649 16.0594C23.8807 16.9751 24.3951 18.2171 24.3951 19.5121C24.3951 20.8072 23.8807 22.0492 22.9649 22.9649C22.0492 23.8806 20.8072 24.3951 19.5122 24.3951V24.3951ZM19.5122 11.9902C17.5172 11.9902 15.604 12.7827 14.1934 14.1933C12.7827 15.604 11.9902 17.5172 11.9902 19.5121C11.9902 21.5071 12.7827 23.4203 14.1934 24.831C15.604 26.2416 17.5172 27.0341 19.5122 27.0341C21.5071 27.0341 23.4204 26.2416 24.831 24.831C26.2416 23.4203 27.0341 21.5071 27.0341 19.5121C27.0341 17.5172 26.2416 15.604 24.831 14.1933C23.4204 12.7827 21.5071 11.9902 19.5122 11.9902V11.9902ZM29.2224 11.8536C29.2224 12.3252 29.0351 12.7774 28.7016 13.1109C28.3682 13.4443 27.9159 13.6317 27.4444 13.6317C26.9728 13.6317 26.5206 13.4443 26.1871 13.1109C25.8537 12.7774 25.6663 12.3252 25.6663 11.8536C25.6663 11.382 25.8537 10.9298 26.1871 10.5963C26.5206 10.2629 26.9728 10.0756 27.4444 10.0756C27.9159 10.0756 28.3682 10.2629 28.7016 10.5963C29.0351 10.9298 29.2224 11.382 29.2224 11.8536" fill="black"/>
</g>
</svg>

<svg xmlns="http://www.w3.org/2000/svg" width="40" height="40" fill="none"><g fill="#000" fill-rule="evenodd" clip-rule="evenodd"><path d="M19.512 4.878c-3.974 0-4.472.017-6.033.088-1.558.071-2.622.319-3.553.68a7.167 7.167 0 0 0-2.592 1.689 7.178 7.178 0 0 0-1.688 2.59c-.36.932-.609 1.997-.68 3.555-.07 1.56-.088 2.057-.088 6.032 0 3.976.017 4.472.088 6.033.071 1.558.319 2.623.68 3.553.368.976.943 1.861 1.689 2.593a7.179 7.179 0 0 0 2.59 1.688c.932.36 1.996.608 3.554.68 1.561.07 2.059.087 6.033.087 3.975 0 4.472-.016 6.033-.087 1.558-.072 2.623-.32 3.553-.681a7.168 7.168 0 0 0 2.593-1.688 7.178 7.178 0 0 0 1.688-2.591c.36-.931.608-1.996.68-3.554.07-1.56.087-2.058.087-6.033 0-3.974-.016-4.472-.087-6.033-.072-1.558-.32-2.622-.681-3.553a7.174 7.174 0 0 0-1.688-2.592 7.18 7.18 0 0 0-2.591-1.688c-.931-.36-1.997-.609-3.555-.68-1.56-.07-2.056-.088-6.032-.088Zm0 2.637c3.907 0 4.37.015 5.914.085 1.427.065 2.201.302 2.717.504.683.265 1.171.583 1.683 1.094.512.512.83 1 1.094 1.683.201.516.439 1.29.504 2.717.07 1.543.085 2.007.085 5.914 0 3.907-.014 4.37-.085 5.914-.065 1.427-.302 2.201-.504 2.717a4.531 4.531 0 0 1-1.094 1.683 4.528 4.528 0 0 1-1.683 1.094c-.516.201-1.29.439-2.717.504-1.543.07-2.005.085-5.914.085-3.908 0-4.37-.014-5.914-.085-1.426-.065-2.2-.302-2.717-.504a4.532 4.532 0 0 1-1.683-1.094 4.534 4.534 0 0 1-1.094-1.683c-.2-.516-.439-1.29-.504-2.717-.07-1.543-.085-2.006-.085-5.914 0-3.907.015-4.37.085-5.914.065-1.426.302-2.2.504-2.717a4.532 4.532 0 0 1 1.094-1.683 4.53 4.53 0 0 1 1.683-1.094c.516-.2 1.29-.439 2.717-.504 1.543-.07 2.007-.085 5.914-.085Z"/><path d="M19.512 24.395a4.882 4.882 0 1 1 0-9.765 4.882 4.882 0 0 1 0 9.765Zm0-12.405a7.522 7.522 0 1 0 0 15.044 7.522 7.522 0 0 0 0-15.044Zm9.71-.136a1.778 1.778 0 1 1-3.556 0 1.778 1.778 0 0 1 3.556 0"/></g></svg>
